X: 82
T: No_175_Mīde'_Burial_Song_(b).krn
%%abc-version 2.0
%%abcx-abcm2ps-target-version 5.9.1 (29 Sep 2008)
%%abc-creator hum2abc beta
%%abcx-conversion-date 2020/08/10 18:54:57
%%humdrum-veritas 919806568
%%humdrum-veritas-data 480793308
%%linebreak <none>
%%barnumbers 0
L: 1/8
M: 2/4
K: B clef=bass
[K:clef=bass][M:2/4]G,2G,2 | 
D4 | 
D4 | 
DD C/B,3/ | 
B,4 | 
B,4 | 
D2D2 | 
C4 | 
C4 | 
B,B, B,/G,3/ | 
G,4 | 
G,4 | 
B,2B,/G,3/ | 
B,4 | 
B,4 | 
B,B, B,/G,3/ | 
G,4 | 
G,4 | 
G,2G,2 | 
G,4 | 
G,4 | 
G,G,G,2 | 
G,4 | 
G,2G,2 | 
D4 | 
DD C/B,3/ | 
B,4 | 
B,4 | 
D2D2 | 
C4 | 
C4 | 
CB, C3/B,/ | 
G,4 | 
G,2G,2 | 
G,4 | 
G,4 | 
D2D2 | 
C4 | 
C3C | 
B,>G,G,2 | 
G,4 | 
G,4 | 
C2C3/B,/ | 
B,2B,2 | 
B,B, B,3/G,/ | 
G,4 | 
G,4 | 
G,2G,2 | 
G,4 | 
G,4 ||  
[M:3/4]G,G,G,4 | 
G,<D,D,4 |]  


